!!!!SEGMENT: pl-gd--ee-2628--005-015_stabile-annibale--il-primo-libro-de-madrigali-a-cinque-voci-chi-fia-lasso-mai-piu.krn
!!!cenid: 15xx:1060
!!!COM: Stabile, Annibale
!!!COM-rismid: pe30009662
!!!CDT: ~1535-1595/04
!!!CNT: Italian
!!!GTL: Il primo libro de madrigali a cinque voci
!!!OTL: Chi fia lasso mai piu
!!!OMV: 015
!!!PDT: 1586
!!!AGN:
!!!SMS-siglum: PL-GD
!!!SMS-shelfmark: Ee 2628
!!!SMS-variant:
!!!SMS-altvar:
!!!SMS-shelfwork: 005-015 G
!!!NIFC-rismid: 990060531
!!!URL-scan: https://repozytorium.nifc.pl/islandora/object/pl-gd%3A66139/datastream/PDF/view
!!!ONB-nifc: UWAGA: Canto: s. 78-89, Tenore: s. 233-245, Basso: s. 390-401, Quinto: s. 712-723. Dla głosu Alto proszę skorzystać z https://pbc.gda.pl/dlibra/doccontent?id=79410, str. 25-48. Uwaga: utwory podzielone wg spisu treści dostępnych na końcu ksiąg – proszę sprawdzać sąsiednie tytuły. Głos Quinto proszę umieszczać wg ambitusu (może się różnić w zależności od utworu).
!!!AIN: 1 alto 1 bass 1 soprn 2 tenor
!!!key:
**kern	**text	**kern	**text	**kern	**text	**kern	**text	**kern	**text
*part5	*part5	*part4	*part4	*part3	*part3	*part2	*part2	*part1	*part1
*staff5	*staff5	*staff4	*staff4	*staff3	*staff3	*staff2	*staff2	*staff1	*staff1
*I"BASSO	*	*I"TENORE	*	*I"QVINTO	*	*I"ALTO	*	*I"CANTO	*
*I'B	*	*I'T	*	*I'V 5	*	*I'A	*	*I'S	*
*Ibass	*	*Itenor	*	*Itenor	*	*Ialto	*	*Isoprn	*
*ICvox	*	*ICvox	*	*ICvox	*	*ICvox	*	*ICvox	*
*clefF4	*	*clefC4	*	*clefC4	*	*clefC3	*	*clefC1	*
*k[]	*	*k[]	*	*k[]	*	*k[]	*	*k[]	*
*a:	*	*a:	*	*a:	*	*a:	*	*a:	*
*M2/1	*	*M2/1	*	*M2/1	*	*M2/1	*	*M2/1	*
*met(C)	*	*met(C)	*	*met(C)	*	*met(C)	*	*met(C)	*
=1-	=1-	=1-	=1-	=1-	=1-	=1-	=1-	=1-	=1-
!LO:TX:a:i:t=Prima parte	!	!	!	!	!	!	!	!	!
!	!	!LO:TX:a:i:t=Prima parte	!	!	!	!	!	!	!
!	!	!	!	!	!	!LO:TX:a:i:t=Prima parte	!	!	!
!	!	!	!	!	!	!	!	!LO:TX:a:i:t=Prima parte	!
!	!	!	!	!LO:TX:b:t=Ch fia laſſo	!	!	!	!	!
!	!	!	!	!LO:TX:a:i:t=Prima parte	!	!	!	!	!
1A	Chi	1e	Chi	00r	.	1a	Chi	1cc	Chi
2E\	fia	2e\	fia	.	.	2g\	fia	2b\	fia
2.F\	laſ-	2.c\	laſ-	.	.	2.f\	laſ-	2.a\	laſ-
=2-	=2-	=2-	=2-	=2-	=2-	=2-	=2-	=2-	=2-
.	.	.	.	.	.	.	.	.	.
4C/	-ſo	4c\	-ſo	.	.	4e\	-ſo	4g/	-ſo
2D/	mai	2A/	mai	.	.	2d\	mai	2f/	mai
2AA/	piu	2A/	piu	.	.	2c/	piu	2e/	piu
2AA/	che	2A/	che	.	.	2e\	che	1cc\	che
=3-	=3-	=3-	=3-	=3-	=3-	=3-	=3-	=3-	=3-
2E\	mi	2G/	mi	0r	.	2e\	mi	.	.
2G\	con-	2B\	con-	.	.	2d\	con-	1b	mi
1D	-ſo-	2.d\	-ſo-	.	.	1f	-ſo-	.	.
.	.	.	.	.	.	.	.	1a\	con-
.	.	4c\	.	.	.	.	.	.	.
=4-	=4-	=4-	=4-	=4-	=4-	=4-	=4-	=4-	=4-
1E	-li	1B	.	2r	.	1e	-li	.	.
.	.	.	.	2e\	Ne i	.	.	2g#X/	-ſo-
1r	.	2A/	-li	2f\	du-	1r	.	1a	-li
.	.	2c\	Ne i	2e\	-ri af-	.	.	.	.
=5-	=5-	=5-	=5-	=5-	=5-	=5-	=5-	=5-	=5-
0r	.	2B\	du-	4g\	-fan-	2r	.	1r	.
.	.	.	.	4f\	.	.	.	.	.
.	.	2c\	-ri af-	4e\	.	2e\	Ne i	.	.
.	.	.	.	4d\	.	.	.	.	.
!	!	!LO:SIC:v:t=custos A	!	!	!	!	!	!	!
!	!	!LO:LB:g=original	!	!	!	!	!	!	!
.	.	4A\	-fan-	2c\	.	2f\	du-	2r	.
.	.	4B\	.	.	.	.	.	.	.
.	.	4c\	.	2A/	-ni	2e\	-ri af-	2cc\	Ne i
.	.	4d\	.	.	.	.	.	.	.
=6-	=6-	=6-	=6-	=6-	=6-	=6-	=6-	=6-	=6-
1r	.	2e\	.	1r	.	4g\	-fan-	2b\	du-
.	.	.	.	.	.	4f\	.	.	.
.	.	2A/	-ni	.	.	4e\	.	2cc\	-ri af-
.	.	.	.	.	.	4d\	.	.	.
!	!	!	!	!	!	!LO:SIC:v:t=custos c	!	!LO:SIC:v:t=custos a	!
!	!	!	!	!	!	!LO:LB:g=original	!	!LO:LB:g=original	!
2r	.	1r	.	2r	.	2c/	.	4a\	-fan-
.	.	.	.	.	.	.	.	4b\	.
*	*	*	*	*	*ij	*	*	*	*
2F\	Ne i	.	.	2A/	Ne i	4A/	-ni	4cc\	.
.	.	.	.	.	.	4a\	Ne i	4dd\	.
!LO:SIC:v:t=custos E	!	!	!	!	!	!	!	!	!
!LO:LB:g=original	!	!	!	!	!	!	!	!	!
=7-	=7-	=7-	=7-	=7-	=7-	=7-	=7-	=7-	=7-
2E\	du-	0r	.	2c\	du-	2g\	du-	2ee\	.
2F\	-ri af-	.	.	2c\	-ri af-	2f\	-ri af-	2a\	-ni
!	!	!	!	!LO:SIC:v:t=custos d	!	!	!	!	!
!	!	!	!	!LO:LB:g=original	!	!	!	!	!
4D\	-fan-	.	.	1.d	-fan-	1f	-fan-	1r	.
4E\	.	.	.	.	.	.	.	.	.
4F\	.	.	.	.	.	.	.	.	.
4G\	.	.	.	.	.	.	.	.	.
=8-	=8-	=8-	=8-	=8-	=8-	=8-	=8-	=8-	=8-
2A\	.	1r	.	.	.	1e	-ni	1r	.
2A\	-ni	.	.	2c\	ni	.	.	.	.
*	*	*	*	*	*Xij	*	*	*	*
2E\	on-	2G#X/	on-	2B\	on-	2e\	on-	2b\	on-
4E\	-de	4G#/	-de	4B\	-de	4e\	-de	4b\	-de
4E\	fi	4G#/	fi	4E/	fi	4e\	ſi	4b\	ſi
=9-	=9-	=9-	=9-	=9-	=9-	=9-	=9-	=9-	=9-
4AA/	ſtrug-	4A/	ſtrug-	4E/	ſtrug-	4e\	ſtrug-	4cc\	ſtrug-
4AA/	-ge il	4A/	-ge il	4E/	-ge il	4e\	-ge il	4cc\	-ge il
1D	co-	2A/	co-	1F	co-	1d	co-	1a	co-
.	.	1A	-re	.	.	.	.	.	.
2AA/	-re	.	.	2E/	-re	2c#X/	-re	2a\	-re
=10-	=10-	=10-	=10-	=10-	=10-	=10-	=10-	=10-	=10-
4r	.	4r	.	0r	.	1r	.	1r	.
2D/	A	2A/	A	.	.	.	.	.	.
4D/	cui	4B-X\	cui	.	.	.	.	.	.
4C/	chie-	4A/	chie-	.	.	2r	.	2r	.
4BB/	-dra-	4Gny/	-dra-	.	.	.	.	.	.
!LO:SIC:v:t=custos AA	!	!	!	!	!	!	!	!	!
!LO:LB:g=original	!	!	!	!	!	!	!	!	!
4AA/	-i	4.A/	-i	.	.	4r	.	4r	.
2A\	piu	.	.	.	.	2e\	A	2a\	A
.	.	8B-\	.	.	.	.	.	.	.
!	!	!LO:SIC:v:t=custos c	!	!	!	!	!	!	!
!	!	!LO:LB:g=original	!	!	!	!	!	!	!
=11-	=11-	=11-	=11-	=11-	=11-	=11-	=11-	=11-	=11-
.	.	2c\	.	1r	.	.	.	.	.
4F\	con-	.	.	.	.	4f\	cui	4a\	cui
2G\	-ſi-	2r	.	.	.	4e\	chie-	4gny/	chie-
.	.	.	.	.	.	4d\	-de-	4f/	-de-
!	!	!	!	!	!	!	!	!LO:SIC:v:t=custos e	!
!	!	!	!	!	!	!	!	!LO:LB:g=original	!
2A\	-gli a-	1r	.	2r	.	2c#X/	-rai	4e/	-rai
.	.	.	.	.	.	.	.	2a\	piu
1D\	-mo-	.	.	2.d\	A	8d\	piu	.	.
.	.	.	.	.	.	8e\	.	.	.
.	.	.	.	.	.	8f\	.	4a\	con-
.	.	.	.	.	.	8g\	.	.	.
!	!	!	!	!	!	!LO:SIC:v:t=custos a	!	!	!
!	!	!	!	!	!	!LO:LB:g=original	!	!	!
=12-	=12-	=12-	=12-	=12-	=12-	=12-	=12-	=12-	=12-
.	.	1r	.	.	.	4a\	.	8f/	-ſi-
.	.	.	.	.	.	.	.	8g/	.
.	.	.	.	4d\	cui	4f\	con-	8a\	.
.	.	.	.	.	.	.	.	8f/	.
2E\	-re	.	.	4c\	chie-	4e\	-ſi-	4g/	.
.	.	.	.	4B\	-dra-	4e\	-gli a-	4g/	-gli a-
2r	.	4r	.	4A/	-i	4e\	-mo-	4.a\	-mo-
.	.	2A/	A	2e\	piu	4cny/	-re	.	.
.	.	.	.	.	.	.	.	8b\	.
2AA/	piu	.	.	.	.	2r	.	4cc\	.
.	.	4A/	cui	4c\	con-	.	.	4a\	re
=13-	=13-	=13-	=13-	=13-	=13-	=13-	=13-	=13-	=13-
4BB/	con	4G/	chie-	2d\	ſi-	1r	.	1r	.
2D/	ſi-	4F/	-dra-	.	.	.	.	.	.
.	.	4E/	-i	2e\	-gli a-	.	.	.	.
4C#X/	-gli a-	2A/	piu	.	.	.	.	.	.
2D/	-mo-	.	.	2A/	-mo-	4r	.	4r	.
.	.	4F/	con-	.	.	2d\	piu	2dd\	piu
!	!	!	!	!LO:SIC:v:t=custos B	!	!	!	!	!
!	!	!	!	!LO:LB:g=original	!	!	!	!	!
2GG/	-re	2G/	ſi-	2B\	-re	.	.	.	.
.	.	.	.	.	.	4g\	con-	4b\	con-
=14-	=14-	=14-	=14-	=14-	=14-	=14-	=14-	=14-	=14-
0r	.	2A/	-gli a-	1r	.	4e\	ſi-	4cc\	ſi-
.	.	.	.	.	.	4a\	-gli a-	4cc\	-gli a-
.	.	2E/	-mo-	.	.	2g#X\	-mo-	2b\	-mo-
.	.	4E/	-re	4r	.	4g#\	-re	4b\	-re
.	.	4.e\	Ne i	4.E/	Ne i	4.g#\	Ne i	4.b\	Ne i
.	.	8e\	du	8E/	du-	8g#\	du	8b\	du-
.	.	4e\	-bio-	4A/	-bio-	4a\	-bio-	4cc\	-bio-
!	!	!	!	!	!	!	!	!LO:SIC:v:t=custos cc	!
!	!	!	!	!	!	!	!	!LO:LB:g=original	!
=15-	=15-	=15-	=15-	=15-	=15-	=15-	=15-	=15-	=15-
2r	.	4f\	-ſi	4F/	-ſi	4a\	-ſi	4cc\	-ſi
.	.	4d\	per-	4G/	per-	4gny\	per-	4b\	per-
!	!	!LO:SIC:v:t=custos c	!	!	!	!	!	!	!
!	!	!LO:LB:g=original	!	!	!	!	!	!	!
4r	.	2c\	-ſier	4C/	-ſier	4e\	-ſier	4g/	-ſier
*	*	*	*	*	*ij	*	*ij	*	*ij
4.Cny/	Ne i	.	.	4.c\	piu	4.e\	Ne i	4.g/	piu
.	.	1r	.	.	.	.	.	.	.
8C/	du-	.	.	8c\	con-	8e\	du-	8g/	con-
4F\	bio-	.	.	4c\	ſi-	4f\	bio-	4a\	ſi-
!	!	!	!	!	!	!LO:SIC:v:t=custos e	!	!	!
!	!	!	!	!	!	!LO:LB:g=original	!	!	!
4C/	-ſi	.	.	4c\	-gli a-	4e\	-ſi	4g/	-gli a-
4D/	per-	.	.	4A/	-mo-	4d\	per-	4f/	-mo-
!LO:SIC:v:t=custos AA	!	!	!	!	!	!	!	!	!
!LO:LB:g=original	!	!	!	!	!	!	!	!	!
=16-	=16-	=16-	=16-	=16-	=16-	=16-	=16-	=16-	=16-
2AA/	-ſier	0r	.	1A	-re	2c/	-ſier	2e/	-re
*	*	*	*	*	*Xij	*	*Xij	*	*Xij
4r	.	.	.	.	.	2c/	co-	2e/	co-
4A\	co-	.	.	.	.	.	.	.	.
4G\	-me	.	.	4r	.	4B/	-me	4g/	-me
4E\	tu	.	.	4f\	co-	4c/	tu	4g/	tu
2F\	ſuo-	.	.	4c\	-me	8A/	ſuo-	1a\	ſuo-
.	.	.	.	.	.	8B/	.	.	.
.	.	.	.	4A/	tu	8c\	.	.	.
.	.	.	.	.	.	8d\	.	.	.
=17-	=17-	=17-	=17-	=17-	=17-	=17-	=17-	=17-	=17-
1E	-li	1r	.	2c\	ſuo-	2e\	.	.	.
.	.	.	.	2B\	-li	4e\	-li	2g#X/	-li
.	.	.	.	.	.	4e\	Che	.	.
2r	.	2r	.	2r	.	1e	fai	2r	.
2E\	Che	2G#X/	Che	2B\	Che	.	.	2b\	Che
!	!	!	!	!LO:SIC:v:t=custos e	!	!	!	!	!
!	!	!	!	!LO:LB:g=original	!	!	!	!	!
=18-	=18-	=18-	=18-	=18-	=18-	=18-	=18-	=18-	=18-
2AA/	fai	2A/	fai	2e\	fai	2r	.	2cc\	fai
2.D\	or-	2.A/	or-	2.d\	or-	2.f\	or-	2.a\	or-
4C#X/	-bo	4A/	-bo	4e\	-bo	4e\	-bo	4a\	-bo
2D/	fan-	2A/	fan-	2f\	fan-	2d\	fan-	2a\	fan-
=19-	=19-	=19-	=19-	=19-	=19-	=19-	=19-	=19-	=19-
1AA	-ciul	1A	-ciul	1e	-ciul	4c/	-ciul	2a\	-ciul
.	.	.	.	.	.	4A/	per-	.	.
!	!	!	!	!	!	!	!	!LO:SIC:v:t=custos e	!
!	!	!	!	!	!	!	!	!LO:LB:g=original	!
.	.	.	.	.	.	4A/	-che	4r	.
.	.	.	.	.	.	4A/	non	4e/	per-
1r	.	1r	.	1r	.	8c/	vo-	4e/	-che
.	.	.	.	.	.	8B/	.	.	.
.	.	.	.	.	.	8c\	.	4e/	non
.	.	.	.	.	.	8d\	.	.	.
!	!	!	!	!	!	!LO:SIC:v:t=custos e	!	!	!
!	!	!	!	!	!	!LO:LB:g=original	!	!	!
.	.	.	.	.	.	8e\	.	8gny/	vo-
.	.	.	.	.	.	8d\	.	8f/	.
.	.	.	.	.	.	8e\	.	8g/	.
.	.	.	.	.	.	8f\	.	8a\	.
=20-	=20-	=20-	=20-	=20-	=20-	=20-	=20-	=20-	=20-
0r	.	1r	.	2r	.	4.g\	.	8b\	.
.	.	.	.	.	.	.	.	8cc\	.
.	.	.	.	.	.	.	.	2dd\	.
.	.	.	.	.	.	8f\	.	.	.
.	.	.	.	4r	.	2e\	.	.	.
.	.	.	.	4A/	per-	.	.	4cc#X\	.
.	.	2D/	per-	4A/	-che	2d\	-li	4dd\	-li
.	.	.	.	4A/	non	.	.	4dd\	per-
.	.	4D/	-che	8d\	vo-	2r	.	4dd\	-che
.	.	.	.	8c\	.	.	.	.	.
.	.	4D/	non	8d\	.	.	.	4dd\	non
.	.	.	.	8e\	.	.	.	.	.
=21-	=21-	=21-	=21-	=21-	=21-	=21-	=21-	=21-	=21-
4r	.	8A/	vo-	4f\	.	4r	.	8ccny\	vo-
.	.	8Gny/	.	.	.	.	.	8b\	.
4AA/	per-	8A\	.	8e\	.	4a\	per-	8cc\	.
.	.	8Bny\	.	8d\	.	.	.	8dd\	.
4AA/	-che	8c\	.	4e\	.	4a\	-che	1cc	.
.	.	8B\	.	.	.	.	.	.	.
4AA/	non	8c\	.	4A/	-li	4a\	non	.	.
.	.	8d\	.	.	.	.	.	.	.
!LO:SIC:v:t=custos C	!	!LO:SIC:v:t=custos e	!	!	!	!	!	!	!
!LO:LB:g=original	!	!LO:LB:g=original	!	!	!	!	!	!	!
8Cny/	vo-	8e\	.	2r	.	2g\	vo-	.	.
8BB/	.	8d\	.	.	.	.	.	.	.
8C/	.	8c\	.	.	.	.	.	.	.
8D/	.	8B\	.	.	.	.	.	.	.
8E\	.	2c\	.	4r	.	4e\	-li	2g/	-li
8D\	.	.	.	.	.	.	.	.	.
*	*	*	*	*	*ij	*	*ij	*	*
8E\	.	.	.	4G/	per-	4e\	per-	.	.
8F\	.	.	.	.	.	.	.	.	.
=22-	=22-	=22-	=22-	=22-	=22-	=22-	=22-	=22-	=22-
8G\	.	4B\	-li	4G/	-che	4e\	-che	1r	.
8E\	.	.	.	.	.	.	.	.	.
2A\	.	4A/	Nel	4F/	non	4d\	non	.	.
!	!	!	!	!LO:SIC:v:t=custos E	!	!	!	!	!
!	!	!	!	!LO:LB:g=original	!	!	!	!	!
.	.	4B\	ſeſ-	2E/	vo-	2e\	vo-	.	.
4G#X\	.	4B\	-to	.	.	.	.	.	.
2A\	-li	2c#X\	cie-	4A/	-li	2e\	-li	2r	.
*	*	*	*	*	*Xij	*	*Xij	*	*
.	.	.	.	4A/	Nel	.	.	.	.
2D/	Nel	2d\	-lo	8F/	ſe-	4r	.	2a\	Nel
.	.	.	.	8G/	.	.	.	.	.
.	.	.	.	8A/	.	4d\	Nel	.	.
.	.	.	.	8B\	.	.	.	.	.
!	!	!	!	!	!	!	!	!LO:SIC:v:t=custos a	!
!	!	!	!	!	!	!	!	!LO:LB:g=original	!
=23-	=23-	=23-	=23-	=23-	=23-	=23-	=23-	=23-	=23-
4C/	ſeſ-	2r	.	4c\	.	4e\	ſeſ-	4a\	ſeſ-
4AA/	-to	.	.	4c\	-ſto	4e\	-to	4a\	-to
2D/	cie-	2d\	(et)	2A/	cie-	2f#X\	cie-	2a\	cie-
2GG/	-lo	2d\	pien	1G	-lo	2g\	-lo	1b	-lo
!	!	!	!	!	!	!LO:SIC:v:t=custos g	!	!	!
!	!	!	!	!	!	!LO:LB:g=original	!	!	!
2GG/	(et)	2.d\	d`al-	.	.	2g\	(et)	.	.
=24-	=24-	=24-	=24-	=24-	=24-	=24-	=24-	=24-	=24-
1AA	pien	.	.	1r	.	2e\	pien	2r	.
.	.	4cny\	-to	.	.	.	.	.	.
.	.	2c\	do-	.	.	2a\	d`al-	1ee	(et)
!LO:SIC:v:t=custos BB	!	!	!	!	!	!	!	!	!
!LO:LB:g=original	!	!	!	!	!	!	!	!	!
1BB	d`al-	1B	-lo-	2r	.	2.g\	-to	.	.
.	.	.	.	2D/	(et)	.	.	1dd\	pien
.	.	.	.	.	.	4fny\	do-	.	.
=25-	=25-	=25-	=25-	=25-	=25-	=25-	=25-	=25-	=25-
1C	-to	2G/	-re	1E	pien	1e	-lo-	.	.
.	.	2g\	d`al-	.	.	.	.	1cc	d`al-
!	!	!LO:SIC:v:t=custos f	!	!	!	!	!	!	!
!	!	!LO:LB:g=original	!	!	!	!	!	!	!
1D	do-	2f\	-to	1F	d`al-	2d\	-re	.	.
.	.	2f\	do-	.	.	2d\	d`al-	1b\	-to
=26-	=26-	=26-	=26-	=26-	=26-	=26-	=26-	=26-	=26-
0E	-lo-	1e	-lo-	2G/	-to	2c/	-to	.	.
.	.	.	.	2A/	do-	2c/	do-	1a	do-
.	.	2e\	-re	1B	-lo-	1B	-lo-	.	.
.	.	4r	.	.	.	.	.	2g#X/	-lo-
.	.	4.e\	Gri-	.	.	.	.	.	.
=27-	=27-	=27-	=27-	=27-	=27-	=27-	=27-	=27-	=27-
1AA	-re	.	.	4c#X\	-re	2A/	-re	1a	re
.	.	8e\	-da	.	.	.	.	.	.
.	.	4e\	co-	4.e\	Gri-	.	.	.	.
.	.	4A/	-ſi	.	.	4r	.	.	.
.	.	.	.	8e\	-da	.	.	.	.
.	.	4A/	o	4e\	co-	4.a\	Gri-	.	.
!	!	!	!	!LO:SIC:v:t=custos A	!	!	!	!	!
!	!	!	!	!LO:LB:g=original	!	!	!	!	!
4r	.	2.c\	pad-	2A/	-ſi	.	.	2r	.
.	.	.	.	.	.	8a\	-da	.	.
4.A\	Gri-	.	.	.	.	4a\	co-	.	.
.	.	.	.	2r	.	4e\	-ſi	4r	.
8A\	-da	.	.	.	.	.	.	.	.
4A\	co-	4c\	-re ec-	.	.	4e\	o	4.ee\	Gri-
=28-	=28-	=28-	=28-	=28-	=28-	=28-	=28-	=28-	=28-
4E\	-ſi	4B\	-co	4r	.	2g\	pad-	.	.
.	.	.	.	.	.	.	.	8ee\	-da
4E\	o	4e\	che	2B\	o	.	.	4ee\	co-
2.Gny\	pad-	4.d\	mo-	.	.	2g\	-re ec-	4b\	-ſi
.	.	.	.	2d\	pad-	.	.	4b\	o
.	.	8c\	.	.	.	.	.	.	.
.	.	4B\	.	.	.	4g\	-co	2.dd\	pad-
4F#X\	-re ec-	4A/	-re	4d\	-re ec-	4a\	che	.	.
!	!	!	!	!	!	!LO:SIC:v:t=custos g	!	!	!
!	!	!	!	!	!	!LO:LB:g=original	!	!	!
4G\	-co	2r	.	4B\	-co	8g\	mo-	.	.
.	.	.	.	.	.	8f\	.	.	.
4A\	che	.	.	4cny\	che	8e\	.	4cc\	-re ec-
.	.	.	.	.	.	8f\	.	.	.
!	!	!	!	!	!	!	!	!LO:SIC:v:t=custos b	!
!	!	!	!	!	!	!	!	!LO:LB:g=original	!
=29-	=29-	=29-	=29-	=29-	=29-	=29-	=29-	=2L9-	=29-
2G\	mo-	00r	.	4e\	mo-	1g	.	4b\	-co
.	.	.	.	8d\	.	.	.	4cc\	che
.	.	.	.	8c\	.	.	.	.	.
2G\	-re	.	.	2d\	.	.	.	2b\	mo-
2r	.	.	.	2c\	-re	2g\	-re	2cc\	-re
2C/	La	.	.	4r	.	2g\	La	2ee\	La
.	.	.	.	4c\	La	.	.	.	.
!LO:SIC:v:t=custos G	!	!	!	!	!	!	!	!	!
!LO:LB:g=original	!	!	!	!	!	!	!	!	!
=30-	=30-	=30-	=30-	=30-	=30-	=30-	=30-	=30-	=30-
4.G\	bel-	.	.	4.B\	bel-	4.g\	bel-	4.dd\	bel-
8G\	-la	.	.	8B\	-la	8g\	-la	8dd\	-la
4G\	fig-	.	.	4B\	fig-	4g\	fig-	4dd\	fig-
4A\	-lia	.	.	4A/	-lia	4e\	-lia	4cc\	-lia
2E\	tua	.	.	2G#X/	tua	1e	tua	4b\	tua
.	.	.	.	.	.	.	.	4b\	ne
2E\	ne	.	.	2G#/	ne	.	.	4b\	te
.	.	.	.	.	.	.	.	4b\	ne
!	!	!LO:SIC:v:t=custos E	!	!	!	!	!	!	!
!	!	!LO:LB:g=original	!	!	!	!	!	!	!
=31-	=31-	=31-	=31-	=31-	=31-	=31-	=31-	=31-	=31-
8AA/	te	4r	.	2A/	te	4r	.	2cc\	duo-
8BB/	.	.	.	.	.	.	.	.	.
8C/	.	2E/	ne	.	.	4e\	ne	.	.
8D/	.	.	.	.	.	.	.	.	.
!	!	!	!	!LO:SIC:v:t=custos G	!	!	!	!	!
!	!	!	!	!LO:LB:g=original	!	!	!	!	!
4E\	.	.	.	2Gny/	ne	4e\	te	2b\	-li
4E\	ne	2B\	te	.	.	4e\	ne	.	.
2D/	duo-	.	.	4.d\	duo-	2f\	duo-	1r	.
.	.	4A/	ne	.	.	.	.	.	.
.	.	.	.	8c\	.	.	.	.	.
2E\	-li	2G#X/	duo-	2B\	.	2e\	-li	.	.
=32-	=32-	=32-	=32-	=32-	=32-	=32-	=32-	=32-	=32-
2r	.	2A/	-li	2A/	-li	2r	.	0r	.
2Fny\	La	2c\	La	4r	.	2a\	La	.	.
.	.	.	.	4f\	La	.	.	.	.
4.C/	bel-	4.c\	bel-	4.e\	bel-	4.g\	bel-	.	.
8C/	-la	8c\	-la	8e\	-la	8g\	-la	.	.
4C/	fig-	4c\	fig-	4e\	fig-	4g\	fig-	.	.
4D/	-lia	4A/	-lia	4d\	-lia	4f\	-lia	.	.
!LO:SIC:v:t=custos AA	!	!	!	!	!	!LO:SIC:v:t=custos e	!	!	!
!LO:LB:g=original	!	!	!	!	!	!LO:LB:g=original	!	!	!
=33-	=33-	=33-	=33-	=33-	=33-	=33-	=33-	=33-	=33-
0AA	.	4A/	tua	4.c#X\	tua	2e\	tua	1r	.
.	.	4E/	ne	.	.	.	.	.	.
.	.	.	.	8d\	.	.	.	.	.
.	.	4E/	te	4e\	.	4c#X/	ne	.	.
.	.	4E/	ne	4c#\	ne	2e\	te	.	.
.	.	2F/	duo-	4c#\	te	.	.	2r	.
.	.	.	.	4A/	ne	4d\	ne	.	.
.	.	1E/	-li	2A/	duo-	4.c#X/	duo-	2a\	La
.	.	.	.	.	.	8d\	.	.	.
=34-	=34-	=34-	=34-	=34-	=34-	=34-	=34-	=34-	=34-
1r	.	.	.	2B\	-li	2e\	.	4.gny/	bel-
.	.	.	.	.	.	.	.	8g/	-la
!	!	!	!	!	!	!	!	!LO:SIC:v:t=custos g	!
!	!	!	!	!	!	!	!	!LO:LB:g=original	!
.	.	4r	.	2r	.	4e\	-li	4g/	fig-
.	.	4F/	La	.	.	4a\	La	4f/	-lia
2r	.	4.c\	bel-	2r	.	4.g\	bel-	2.e/	tua
.	.	8c\	-la	.	.	8g\	-la	.	.
!	!	!LO:SIC:v:t=custos c	!	!	!	!	!	!	!
!	!	!LO:LB:g=original	!	!	!	!	!	!	!
2C/	La	4c\	fig-	4r	.	4g\	fig-	.	.
*	*	*	*	*	*	*	*	*	*ij
.	.	4c\	-lia	4cny\	La	4g\	-lia	4ee\	La
!	!	!	!	!LO:SIC:v:t=custos B	!	!	!	!	!
!	!	!	!	!LO:LB:g=original	!	!	!	!	!
=35-	=35-	=35-	=35-	=35-	=35-	=35-	=35-	=35-	=35-
4.G\	bel-	2d\	tua	4.B\	bel-	2.g\	tua	4.dd\	bel-
8G\	-la	.	.	8B\	-la	.	.	8dd\	-la
4G\	fig-	4r	.	4B\	fig-	.	.	4dd\	fig-
4A\	-lia	4A/	ne	4A/	-lia	4e\	ne	4cc\	-lia
2E\	tua	4B\	te	2G#X/	tua	4e\	te	2b\	tua
*	*	*	*	*	*	*	*	*	*Xij
.	.	4B\	ne	.	.	4e\	ne	.	.
2AA/	ne	2c\	duo-	2A/	ne	2e\	duo-	2a\	ne
=36-	=36-	=36-	=36-	=36-	=36-	=36-	=36-	=36-	=36-
2E\	te	4B\	-li.	4B\	te	2e\	-li	2g#X/	te
*	*	*	*ij	*	*	*	*	*	*
.	.	4B\	ne	4E/	ne	.	.	.	.
2E\	ne	4B\	te	4.e\	duo-	4r	.	2g#/	ne
.	.	4B\	ne	.	.	4e\	ne	.	.
.	.	.	.	8d\	.	.	.	.	.
1AA	duo-	1c	duo-	4.c\	.	4e\	te	1a	duo-
.	.	.	.	.	.	4e\	ne	.	.
.	.	.	.	8B\	.	.	.	.	.
.	.	.	.	2A/	.	2f\	duo-	.	.
=37-	=37-	=37-	=37-	=37-	=37-	=37-	=37-	=37-	=37-
00E	-li.	00B	-li.	00G#X	-li.	00e	-li.	00b	-li.
*	*	*	*Xij	*	*	*	*	*	*
=38-	=38-	=38-	=38-	=38-	=38-	=38-	=38-	=38-	=38-
.	.	.	.	.	.	.	.	.	.
=||	=||	=||	=||	=||	=||	=||	=||	=||	=||
*-	*-	*-	*-	*-	*-	*-	*-	*-	*-
!!!system-decoration: [(s1,s2,s3,s4,s5)]
!!!ENC: Filip Voros
!!!END: 2022-07-08
!!!ENC: Urszula Świątek
!!!END: 2022-07-29
